javascript.info/6-data-storage/03-indexeddb/indexeddb-index.svg

<?xml version="1.0" encoding="UTF-8"?>
<svg width="473px" height="291px" viewBox="0 0 473 291" version="1.1" xmlns="http://www.w3.org/2000/svg" xmlns:xlink="http://www.w3.org/1999/xlink">
    <!-- Generator: sketchtool 55.2 (78181) - https://sketchapp.com -->
    <title>indexeddb-index.svg</title>
    <desc>Created with sketchtool.</desc>
    <g id="data-storage" stroke="none" stroke-width="1" fill="none" fill-rule="evenodd">
        <g id="indexeddb-index.svg">
            <path d="M17,43 L17,101 L124,101 L124,43 L17,43 Z" id="Rectangle-1" stroke="#E8C48E" stroke-width="2" fill="#FFF9EB"></path>
            <path d="M17,43 L17,101 L130,101 L130,43 L17,43 Z" id="Rectangle-1-Copy" stroke="#E8C48E" stroke-width="2" fill="#FFF9EB"></path>
            <text id="id:-'html'-price:-3" font-family="PTMono-Regular, PT Mono" font-size="14" font-weight="normal" fill="#8A704D">
                <tspan x="27" y="66">id: 'html'</tspan>
                <tspan x="27" y="81">price: 3</tspan>
            </text>
            <path d="M17,101 L17,159 L130,159 L130,101 L17,101 Z" id="Rectangle-1-Copy-2" stroke="#E8C48E" stroke-width="2" fill="#FFF9EB"></path>
            <text id="id:-'css'-price:-5" font-family="PTMono-Regular, PT Mono" font-size="14" font-weight="normal" fill="#8A704D">
                <tspan x="27" y="124">id: 'css'</tspan>
                <tspan x="27" y="139">price: 5</tspan>
            </text>
            <text id="3:-['html']-5:-['css" font-family="PTMono-Regular, PT Mono" font-size="20" font-weight="normal" line-spacing="30" fill="#8A704D">
                <tspan x="245" y="60">3:  ['html']</tspan>
                <tspan x="245" y="90">5:  ['css']</tspan>
                <tspan x="245" y="120">10: ['js','nodejs']</tspan>
            </text>
            <path d="M17,159 L17,217 L130,217 L130,159 L17,159 Z" id="Rectangle-1-Copy-3" stroke="#E8C48E" stroke-width="2" fill="#FFF9EB"></path>
            <text id="id:-'js'-price:-10" font-family="PTMono-Regular, PT Mono" font-size="14" font-weight="normal" fill="#8A704D">
                <tspan x="27" y="182">id: 'js'</tspan>
                <tspan x="27" y="197">price: 10</tspan>
            </text>
            <path d="M17,217 L17,275 L130,275 L130,217 L17,217 Z" id="Rectangle-1-Copy-4" stroke="#E8C48E" stroke-width="2" fill="#FFF9EB"></path>
            <text id="id:-'nodejs'-price:" font-family="PTMono-Regular, PT Mono" font-size="14" font-weight="normal" fill="#8A704D">
                <tspan x="27" y="240">id: 'nodejs'</tspan>
                <tspan x="27" y="255">price: 10</tspan>
            </text>
            <text id="books" font-family="OpenSans-Regular, Open Sans" font-size="18" font-weight="normal" fill="#8A704D">
                <tspan x="16" y="31">books</tspan>
            </text>
            <text id="index" font-family="OpenSans-Regular, Open Sans" font-size="18" font-weight="normal" fill="#8A704D">
                <tspan x="245" y="31">index</tspan>
            </text>
            <path id="Line" d="M223.5,57.5 L220.5,57.5 L220.5,55.5 L223.5,55.5 L223.5,49.5 L237.5,56.5 L223.5,63.5 L223.5,57.5 Z M216.5,55.5 L216.5,57.5 L211.5,57.5 L211.5,55.5 L216.5,55.5 Z M207.5,55.5 L207.5,57.5 L202.5,57.5 L202.5,55.5 L207.5,55.5 Z M198.5,55.5 L198.5,57.5 L193.5,57.5 L193.5,55.5 L198.5,55.5 Z M189.5,55.5 L189.5,57.5 L184.5,57.5 L184.5,55.5 L189.5,55.5 Z M180.5,55.5 L180.5,57.5 L175.5,57.5 L175.5,55.5 L180.5,55.5 Z M171.5,55.5 L171.5,57.5 L166.5,57.5 L166.5,55.5 L171.5,55.5 Z M162.5,55.5 L162.5,57.5 L157.5,57.5 L157.5,55.5 L162.5,55.5 Z M153.5,55.5 L153.5,57.5 L148.5,57.5 L148.5,55.5 L153.5,55.5 Z M144.5,55.5 L144.5,57.5 L139.5,57.5 L139.5,55.5 L144.5,55.5 Z" fill="#EE6B47" fill-rule="nonzero"></path>
            <path id="Line-Copy" d="M224.66239,91.1741321 L221.929809,92.1557389 L221.253665,90.2734986 L223.986246,89.2918919 L221.957812,83.645171 L237.5,85.5 L226.690824,96.820853 L224.66239,91.1741321 Z M217.489184,91.6257877 L218.165329,93.508028 L213.459728,95.1983894 L212.783583,93.3161491 L217.489184,91.6257877 Z M209.019103,94.6684383 L209.695247,96.5506786 L204.989647,98.24104 L204.313502,96.3587997 L209.019103,94.6684383 Z M200.549022,97.7110889 L201.225166,99.5933291 L196.519565,101.283691 L195.843421,99.4014503 L200.549022,97.7110889 Z M192.07894,100.753739 L192.755085,102.63598 L188.049484,104.326341 L187.37334,102.444101 L192.07894,100.753739 Z M183.608859,103.79639 L184.285004,105.67863 L179.579403,107.368992 L178.903258,105.486751 L183.608859,103.79639 Z M175.138778,106.839041 L175.814922,108.721281 L171.109321,110.411642 L170.433177,108.529402 L175.138778,106.839041 Z M166.668696,109.881691 L167.344841,111.763931 L162.63924,113.454293 L161.963096,111.572053 L166.668696,109.881691 Z M158.198615,112.924342 L158.87476,114.806582 L154.169159,116.496943 L153.493014,114.614703 L158.198615,112.924342 Z M149.728534,115.966992 L150.404678,117.849233 L145.699078,119.539594 L145.022933,117.657354 L149.728534,115.966992 Z M141.258452,119.009643 L141.934597,120.891883 L137.228996,122.582245 L136.552852,120.700004 L141.258452,119.009643 Z" fill="#EE6B47" fill-rule="nonzero"></path>
            <path id="Line-Copy-2" d="M225.199039,129.259169 L222.565951,130.47039 L221.73014,128.653409 L224.363228,127.442188 L221.855794,121.991245 L237.5,122.5 L227.706473,134.710112 L225.199039,129.259169 Z M218.096178,130.325031 L218.931989,132.142012 L214.389537,134.23154 L213.553726,132.414559 L218.096178,130.325031 Z M209.919764,134.086182 L210.755575,135.903162 L206.213123,137.99269 L205.377312,136.17571 L209.919764,134.086182 Z M201.74335,137.847332 L202.579161,139.664313 L198.036709,141.753841 L197.200898,139.93686 L201.74335,137.847332 Z M193.566936,141.608482 L194.402747,143.425463 L189.860295,145.514991 L189.024484,143.698011 L193.566936,141.608482 Z M185.390522,145.369633 L186.226333,147.186614 L181.683881,149.276142 L180.848069,147.459161 L185.390522,145.369633 Z M177.214108,149.130783 L178.049919,150.947764 L173.507467,153.037292 L172.671655,151.220311 L177.214108,149.130783 Z M169.037694,152.891934 L169.873505,154.708915 L165.331053,156.798443 L164.495241,154.981462 L169.037694,152.891934 Z M160.86128,156.653084 L161.697091,158.470065 L157.154638,160.559593 L156.318827,158.742612 L160.86128,156.653084 Z M152.684865,160.414235 L153.520677,162.231216 L148.978224,164.320744 L148.142413,162.503763 L152.684865,160.414235 Z M144.508451,164.175385 L145.344263,165.992366 L140.80181,168.081894 L139.965999,166.264913 L144.508451,164.175385 Z" fill="#EE6B47" fill-rule="nonzero"></path>
            <path id="Line-Copy-3" d="M235.223819,142.071062 L233.042441,144.019083 L231.710272,142.527331 L233.89165,140.57931 L229.895142,136.104053 L245,132 L239.220327,146.546319 L235.223819,142.071062 Z M228.726768,145.19167 L230.058937,146.683422 L226.329557,150.013845 L224.997387,148.522093 L228.726768,145.19167 Z M222.013883,151.186432 L223.346052,152.678184 L219.616672,156.008608 L218.284502,154.516856 L222.013883,151.186432 Z M215.300998,157.181194 L216.633167,158.672947 L212.903787,162.00337 L211.571617,160.511618 L215.300998,157.181194 Z M208.588113,163.175957 L209.920282,164.667709 L206.190902,167.998133 L204.858732,166.50638 L208.588113,163.175957 Z M201.875228,169.170719 L203.207397,170.662471 L199.478017,173.992895 L198.145847,172.501143 L201.875228,169.170719 Z M195.162343,175.165482 L196.494512,176.657234 L192.765132,179.987657 L191.432962,178.495905 L195.162343,175.165482 Z M188.449458,181.160244 L189.781627,182.651996 L186.052247,185.98242 L184.720077,184.490667 L188.449458,181.160244 Z M181.736573,187.155006 L183.068742,188.646758 L179.339362,191.977182 L178.007193,190.48543 L181.736573,187.155006 Z M175.023688,193.149769 L176.355858,194.641521 L172.626477,197.971944 L171.294308,196.480192 L175.023688,193.149769 Z M168.310803,199.144531 L169.642973,200.636283 L165.913592,203.966707 L164.581423,202.474955 L168.310803,199.144531 Z M161.597918,205.139293 L162.930088,206.631046 L159.200707,209.961469 L157.868538,208.469717 L161.597918,205.139293 Z M154.885033,211.134056 L156.217203,212.625808 L152.487822,215.956231 L151.155653,214.464479 L154.885033,211.134056 Z M148.172148,217.128818 L149.504318,218.62057 L145.774937,221.950994 L144.442768,220.459242 L148.172148,217.128818 Z M141.459263,223.12358 L142.791433,224.615333 L139.062052,227.945756 L137.729883,226.454004 L141.459263,223.12358 Z" fill="#EE6B47" fill-rule="nonzero"></path>
        </g>
    </g>
</svg>

<svg xmlns="http://www.w3.org/2000/svg" width="473" height="291" viewBox="0 0 473 291"><defs><style>@import url(https://fonts.googleapis.com/css?family=Open+Sans:bold,italic,bolditalic%7CPT+Mono);@font-face{font-family:&apos;PT Mono&apos;;font-weight:700;font-style:normal;src:local(&apos;PT MonoBold&apos;),url(/pack/modules/styles/blocks/font/PTMonoBold.woff2) format(&apos;woff2&apos;),url(/pack/modules/styles/blocks/font/PTMonoBold.woff) format(&apos;woff&apos;),url(/pack/modules/styles/blocks/font/PTMonoBold.ttf) format(&apos;truetype&apos;)}</style></defs><g id="data-storage" fill="none" fill-rule="evenodd" stroke="none" stroke-width="1"><g id="indexeddb-index.svg"><path id="Rectangle-1" fill="#FFF9EB" stroke="#E8C48E" stroke-width="2" d="M17 43v58h107V43H17z"/><path id="Rectangle-1-Copy" fill="#FFF9EB" stroke="#E8C48E" stroke-width="2" d="M17 43v58h113V43H17z"/><text id="id:-'html'-price:-3" fill="#8A704D" font-family="PTMono-Regular, PT Mono" font-size="14" font-weight="normal"><tspan x="27" y="66">id: &apos;html&apos;</tspan> <tspan x="27" y="81">price: 3</tspan></text><path id="Rectangle-1-Copy-2" fill="#FFF9EB" stroke="#E8C48E" stroke-width="2" d="M17 101v58h113v-58H17z"/><text id="id:-'css'-price:-5" fill="#8A704D" font-family="PTMono-Regular, PT Mono" font-size="14" font-weight="normal"><tspan x="27" y="124">id: &apos;css&apos;</tspan> <tspan x="27" y="139">price: 5</tspan></text><text id="3:-['html']-5:-['css" fill="#8A704D" font-family="PTMono-Regular, PT Mono" font-size="20" font-weight="normal"><tspan x="245" y="60">3: [&apos;html&apos;]</tspan> <tspan x="245" y="90">5: [&apos;css&apos;]</tspan> <tspan x="245" y="120">10: [&apos;js&apos;,&apos;nodejs&apos;]</tspan></text><path id="Rectangle-1-Copy-3" fill="#FFF9EB" stroke="#E8C48E" stroke-width="2" d="M17 159v58h113v-58H17z"/><text id="id:-'js'-price:-10" fill="#8A704D" font-family="PTMono-Regular, PT Mono" font-size="14" font-weight="normal"><tspan x="27" y="182">id: &apos;js&apos;</tspan> <tspan x="27" y="197">price: 10</tspan></text><path id="Rectangle-1-Copy-4" fill="#FFF9EB" stroke="#E8C48E" stroke-width="2" d="M17 217v58h113v-58H17z"/><text id="id:-'nodejs'-price:" fill="#8A704D" font-family="PTMono-Regular, PT Mono" font-size="14" font-weight="normal"><tspan x="27" y="240">id: &apos;nodejs&apos;</tspan> <tspan x="27" y="255">price: 10</tspan></text><text id="books" fill="#8A704D" font-family="OpenSans-Regular, Open Sans" font-size="18" font-weight="normal"><tspan x="16" y="31">books</tspan></text><text id="index" fill="#8A704D" font-family="OpenSans-Regular, Open Sans" font-size="18" font-weight="normal"><tspan x="245" y="31">index</tspan></text><path id="Line" fill="#EE6B47" fill-rule="nonzero" d="M223.5 57.5h-3v-2h3v-6l14 7-14 7v-6zm-7-2v2h-5v-2h5zm-9 0v2h-5v-2h5zm-9 0v2h-5v-2h5zm-9 0v2h-5v-2h5zm-9 0v2h-5v-2h5zm-9 0v2h-5v-2h5zm-9 0v2h-5v-2h5zm-9 0v2h-5v-2h5zm-9 0v2h-5v-2h5z"/><path id="Line-Copy" fill="#EE6B47" fill-rule="nonzero" d="M224.662 91.174l-2.732.982-.676-1.883 2.732-.981-2.028-5.647L237.5 85.5l-10.81 11.32-2.028-5.646zm-7.173.452l.676 1.882-4.705 1.69-.676-1.882 4.705-1.69zm-8.47 3.042l.676 1.883-4.705 1.69-.676-1.882 4.705-1.69zm-8.47 3.043l.676 1.882-4.705 1.69-.677-1.882 4.706-1.69zm-8.47 3.043l.676 1.882-4.706 1.69-.676-1.882 4.706-1.69zm-8.47 3.042l.676 1.883-4.706 1.69-.676-1.882 4.706-1.69zm-8.47 3.043l.676 1.882-4.706 1.69-.676-1.882 4.706-1.69zm-8.47 3.043l.676 1.882-4.706 1.69-.676-1.882 4.706-1.69zm-8.47 3.042l.676 1.883-4.706 1.69-.676-1.882 4.706-1.69zm-8.47 3.043l.676 1.882-4.706 1.69-.676-1.882 4.706-1.69zm-8.47 3.043l.676 1.882-4.706 1.69-.676-1.882 4.705-1.69z"/><path id="Line-Copy-2" fill="#EE6B47" fill-rule="nonzero" d="M225.199 129.26l-2.633 1.21-.836-1.817 2.633-1.21-2.507-5.452 15.644.509-9.794 12.21-2.507-5.45zm-7.103 1.065l.836 1.817-4.542 2.09-.836-1.817 4.542-2.09zm-8.176 3.761l.836 1.817-4.543 2.09-.836-1.817 4.543-2.09zm-8.177 3.761l.836 1.817-4.542 2.09-.836-1.817 4.542-2.09zm-8.176 3.761l.836 1.817-4.543 2.09-.836-1.817 4.543-2.09zm-8.176 3.762l.835 1.817-4.542 2.09-.836-1.818 4.543-2.09zm-8.177 3.76l.836 1.818-4.543 2.09-.835-1.818 4.542-2.09zm-8.176 3.762l.836 1.817-4.543 2.09-.836-1.818 4.543-2.09zm-8.177 3.761l.836 1.817-4.542 2.09-.836-1.817 4.542-2.09zm-8.176 3.761l.836 1.817-4.543 2.09-.836-1.817 4.543-2.09zm-8.177 3.761l.836 1.817-4.542 2.09-.836-1.817 4.542-2.09z"/><path id="Line-Copy-3" fill="#EE6B47" fill-rule="nonzero" d="M235.224 142.071l-2.182 1.948-1.332-1.492 2.182-1.948-3.997-4.475L245 132l-5.78 14.546-3.996-4.475zm-6.497 3.12l1.332 1.492-3.73 3.33-1.332-1.49 3.73-3.331zm-6.713 5.995l1.332 1.492-3.73 3.33-1.331-1.491 3.729-3.33zm-6.713 5.995l1.332 1.492-3.73 3.33-1.331-1.491 3.729-3.33zm-6.713 5.995l1.332 1.492-3.73 3.33-1.331-1.492 3.73-3.33zm-6.713 5.995l1.332 1.491-3.729 3.33-1.332-1.49 3.73-3.331zm-6.713 5.994l1.333 1.492-3.73 3.33-1.332-1.491 3.73-3.33zm-6.713 5.995l1.333 1.492-3.73 3.33-1.332-1.491 3.73-3.33zm-6.712 5.995l1.332 1.492-3.73 3.33-1.332-1.492 3.73-3.33zm-6.713 5.995l1.332 1.492-3.73 3.33-1.332-1.492 3.73-3.33zm-6.713 5.995l1.332 1.491-3.73 3.33-1.332-1.491 3.73-3.33zm-6.713 5.994l1.332 1.492-3.73 3.33-1.331-1.491 3.729-3.33zm-6.713 5.995l1.332 1.492-3.73 3.33-1.331-1.492 3.729-3.33zm-6.713 5.995l1.332 1.492-3.73 3.33-1.331-1.492 3.73-3.33zm-6.713 5.995l1.332 1.491-3.729 3.33-1.332-1.491 3.73-3.33z"/></g></g></svg>
